!!!CDT:
!!!PTL: Il secondo libro de madrigali a cinque voci
!!!PPP: Bologna
!!!PPR: Rossi
!!!PDT: 1584
!!!PUB-format:
!!!RISM: C 4174
!!!rime: 298
!!!AGN: Madrigal
!!!SCT: Trm0298a
!!!SCA: Trm0298a
!!!original-voices: 5
!!!extant-voices: 1
!!!complete: N
!!!final: G?
!!!COM: Cortellini, Camillo
!!!OTL: Mentr'io mirava fiso
**kern	**text
*part1	*part1
*staff1	*staff1
*I"Tenore	*
*I'T	*
*oclefC4	*
*clefGv2	*
*k[b-]	*
*omet(C)	*
*M4/2	*
=1	=1
2r	.
2G	Men-
2.d	-te io
4d	mi-
=2	=2
4c	-ra-
4B-y	-va
2e-i	fis-
4d	-so,
4G	Men-
[2d	-tre io
=3	=3
4d]	.
4d	mi-
8B-yL	-ra-
8c	.
8d	.
8B-yJ	.
4c	.
4d	-va
2c	fis-
=4	=4
4.d	.
8c	.
8B-yL	.
8AJ	.
4G	.
4A	.
4d	.
2c	.
=5	=5
2B-y	-so
4r	.
4B-y	De
4A	la
4A	mia
2G	don-
=6	=6
2A	-na,
2r	.
4r	.
4B-y	De
8FL	la
8G	.
8A	.
8B-yJ	.
=7	=7
4c	.
4c	mia
2B-y	don-
1c	-na
=8	=8
1r	.
2r	.
4.G	gli oc-
8G	-chi ar-
=9	=9
4E	-den-
4D	-ti e
2F	bel-
1F	-li,
=10	=10
1r	.
2r	.
4r	.
4B-y	Fiam-
=11	=11
4B-y	-meg-
4.B-y	-gian-
8A	-di
4G	n'u-
2F#X	-sci-
2G	-ro,
=12	=12
1r	.
4r	.
4d	Fiam-
4d	-meg-
[4d	-gian-
=13	=13
8d]	.
8c	-do
4B-y	n'u-
4A	-sci-
4B-y	-ro
2r	.
4r	.
4d	a
=14	=14
4c#X	l'im-
4d	-pro-
4A	-vi-
8B-y	-so,
8G	<a
4F#X	l'im-
4G	-pro-
4D	-vi-
4G	-so,>
=15	=15
2r	.
4r	.
4G	E
4.A	leg-
8B-y	-gia-
8G	-dret-
8G	-ti e
4c	snel-
=16	=16
4F	.
4B-y	-li,
4.c	<E
8d	leg-
4B-y	-gia-
4e-i	-dret-
2d	-ti e
=17	=17
2c	snel-
2B-y	-li,>
1r	.
=18	=18
2r	.
4r	.
4B-y	Fa-
4.A	-cen-
8A	-do
8B-y	mil-
8c	-le,
8A	mil-
8B-y	-le
=19	=19
2G	scher-
2F	-zi
1r	.
=20	=20
4G	e
8G	mil-
8A	-le,
8B-y	mil-
8c	-le
4.d	gi-
8c	.
4B-y	.
8A	-ri,
8A	e
8d	mil-
8B-y	-le
=21	=21
4c	gi-
8B-y	-ri,
8B-y	e
8c	mil-
8A	-le,
8c	mil-
8c	-le
2B-y	gi-
2F	-ri,
=22	=22
8F	Mil-
8F	-le,
8F	Mil-
8G	-le
4A	fu-
4G	-ghe,
1r	.
=23	=23
8G	<Mil-
8G	-le,
8G	Mil-
8A	-le
4B-y	fu-
4A	-ghe,>
2r	.
4r	.
[4d	Mil-
=24	=24
4d]	.
4c	-le
2B-y	fu-
1A	-ghe,
=25	=25
8B-y	Mil-
8B-y	-le,
8B-y	Mil-
8c	-le
4d	fu-
4d	-ghe,
8d	Mil-
8c	-le
4B-y	fu-
8A	-ghe
8D	d'in-
4A	-tor-
=26	=26
2G	-no
2G	E
4A	mil-
4BnX	-le a
4.c	gua-
8c	-ti
=27	=27
4.c	den-
8c	-tro al
4c	se-
4d	-no a-
2c#X	-dor-
4d	-no,
4d	<Mil-
=28	=28
4c#X	-le a-
4d	-gua-
4.G	-ti
8G	den-
4.cnXi	-tro al
8BnX	se-
4c	-no a-
4G	-dor-
=29	=29
2D	.
4G	-no,>
4B-y	Mi
4.d	tras-
8d	-se-
4.c	-ro
8c	del
=30	=30
1B-y	cor
1r	.
=31	=31
4r	.
4.d	mil-
8d	-le
4A	so-
4BnX	-spir,
4BnX	so-
2c	-spir,
=32	=32
4r	.
4c	so-
2B-y	-spir,
4r	.
4F	so-
4c	-spi-
4F	-ri;
=33	=33
4r	.
4.B-y	On-
8B-y	-de
4F	con
4.A	dol-
8G	-ci ed
4A	a-
4c	-mo-
=34	=34
4BnX	-ro-
4d	-si
2c	la-
2d	-i
4r	.
4B-i	Pie-
=35	=35
2d	-tà,
2r	.
4r	.
4d	<Pie-
[2B-y	-tà,>
=36	=36
4B-]	.
4B-y	<Pie-
4c	-tà,>
4G	<Pie-
4A	-tà,>
4B-y	gri-
2A	-da-
=37	=37
4B-y	-i,
4.B-y	On-
8B-y	-de
4F	con
4.A	dol-
8G	-ci ed
4A	a-
4c	-mo-
=38	=38
4BnX	-ro-
4d	-si
2c	la-
2d	-i
4r	.
4B-i	Pie-
=39	=39
2d	-tà,
2r	.
4r	.
4d	<Pie-
[2B-y	-tà,>
=40	=40
4B-]	.
4B-y	<Pie-
4c	-tà,>
4G	<Pie-
4A	-tà>
4B-y	gri-
2A	-da-
=41	=41
0Gl	-i.
==	==
*-	*-
!!!RDF**kern: i = editorial accidental
!!!RDF**kern: l = terminal long
!!!ENC: Emiliano Ricciardi
!!!END: 2018
!!!EED: Ricciardi, Emiliano
!!!EEV: 2018/09/18
!!!YEC: Copyright 2018 Emiliano Ricciardi, All Rights Reserved
!!!ONB: Translated from MusicXML on 2018/09/18 and edited by Craig Stuart Sapp
!!@@BEGIN:	VERSEDATA
!!@SOLERTI:	298
!!@CATALOGNUM:	Trm0298
!!@LAST_MODIFIED: 2020/07/12
!!@TITLE:		Mentr'io mirava fiso
!!@GENRE:		madrigale
!!@MANUSRC:	E<sub>1</sub>, F<sub>2</sub>, V<sub>13/E1</sub>
!!@PRINTSRC:	27, 48, 70, 141, 166, 169
!!@@BEGIN:	VERSES
!!@ABOUTIT:
!!@ABOUTEN:
!!@EDITOR:	Solerti, Angelo
!!@EDITION_TITLE: Le Rime di Torquato Tasso
!!@EDITION_LOC:	Bologna
!!@EDITION_PUB:	Romagnoli-Dall’Acqua
!!@EDITION_DATE:  1898-1902
!!@EDITION_VOL:	2
!!@EDITION_PAGE:  362
!!@TRANSLATOR:	Emiliano Ricciardi and Amyrose McCue Gill
!!@VERSE:
!!	Mentr'io mirava fiso
!!	De la mia donna gli occhi ardenti e belli,
!!	Due vaghi spiritelli
!!	Fiammeggiando n'usciro a l'improviso,
!!	E dopo mille scherzi e mille giri,
!!	Mille fughe d'intorno
!!	E mille agguati dentro al seno adorno,
!!	Mi trassero del cor mille sospiri;
!!	Ond'io con dolci ed amorosi rai
!!	Pietà, pietà, gridai.
!!@TVERSE:
!!	While I gazed raptly
!!	At the ardent and beautiful eyes of my lady,
!!	Two lovely little spirits
!!	Blazing came out of them suddenly,
!!	And after a thousand jokes and a thousand turns,
!!	A thousand escapes all around
!!	And a thousand incursions into the adorned breast,
!!	They drew from my heart a thousand sighs;
!!	So that I with sweet and loving eyes
!!	“Pity, pity” cried.
!!@@END:		VERSES
!!@OTHER_CRIT_ED:   None
!!@ATTRIBUTION_ABOUT:	Secure
!!		<br>
!!		Among other sources, this poem appears in the authoritative manuscript Estense It. 385, Biblioteca Estense Universitaria, Modena, Italy (see Literary Sources).
!!@DATING:	Mid-1580s or earlier
!!@DEDICATEE:
!!@COMMENTARY:
!!@@END:		VERSEDATA
!!@@BEGIN:	SETTING
!!@CATALOGNUM:	Trm0298a
!!@RIMETITLE:	Mentr'io mirava fiso
!!@SOLERTI:	298
!!@COMPOSER:	Cortellini, Camillo
!!@PRINCEPSTITLE:	Il secondo libro de madrigali a cinque voci
!!@PRINCEPSLOC:	Bologna
!!@NORMLOC:	Bologna
!!@NORMPUB:	Rossi
!!@NORMPUBSHORT:	Rossi
!!@PRINCEPSPUB:	Rossi
!!@PRINCEPSYEAR:	1584
!!@PRINCEPSRISM:	C 4174
!!@REPRINTS:	
!!@OVOICES:	5
!!@EXTANTVOICES:	1
!!@PARTBOOKS:	
!!@EXTPARTBOOKS:	
!!@OCLEFS:	C4
!!@OMENSURATION:	C
!!@OKEYSIG:	b-
!!@FINAL:	G?
!!@TIMPEDITOR:	Ricciardi, Emiliano
!!@NOTE:		
!!@@END:		SETTING
